X:1
T:Hüte dich
T:Karl Friedrich Julius Girschner
T:Volkslied (1550)
T:Hüte dich
T:CPDL - Creative Commons Attribution Non Commercial 3.0
T:CPDL - Creative Commons Attribution Non Commercial 3.0
C:Karl Friedrich Julius
C:Girschner
Z:Volkslied (1550)
Z:CPDL - Creative Commons Attribution Non Commercial 3.0
%%score [ ( 1 2 ) ( 3 4 ) ]
L:1/8
Q:1/4=90
M:4/4
K:A
V:1 treble-8 nm="Tenor"
V:2 treble-8 
V:3 bass nm="Bass"
V:4 bass 
V:1
"^Allegretto" z!p! .e.e.^d .e.d.e.c |!f!!>(! a4-!>)! a2 z2 |!p!!<(! g6!<)! g2 | %3
w: 1.~Ich weiß ein Mäd- chen hübsch und|fein! _|1\-4.~hü- te|
w: 2.~Sie hat zwei Äug- lein, die sind|braun! _|_ _|
w: 3.~Sie hat gar lieb- lich gold- nes|Haar! _|_ _|
w: 4.~Sie gibt dir'n Kränz- lein fein ge-|macht! _|_ _|
!>(! f4-!>)! f2 z!f! f | f3!>(! e!>)! d3 d | !>!e3 d c2 |!p! z2 | z2!p! d>f e2 z2 | %8
w: dich! _ 1.~es|kann wohl falsch und|freund- lich sein!||hü- te dich,|
w: * * 2.~sie|werd'n dich ü- ber-|zwerch an- schau'n!|||
w: * * 3.~und|was sie red't, das|ist nicht wahr;|||
w: * * 4.~für|ei- nen Narr'n wirst|du ge- macht;|||
 z!p! .a.g.f e2 z c | .B.c.d.^d"^cresc." ede!mf!^e | !>!f"^cresc."c!>!gc!>(! ag!>)! f2 | %11
w: nimm dich in Acht, sie|nar- ret, nar- ret, nar- ret dich, sie|nar- ret, nar- ret, nar- ret dich,|
w: |||
w: |||
w: |||
!f!!>(! f3!>)! e e2 z2 | z!p! .e.a.g a2 z!pp! c | B2 z2 e2 z2 | %14
w: hü- te dich,|ver- trau ihr nicht, nimm|dich in|
w: |||
w: |||
w: |||
 A!ff!e[Q:1/4=120]"^riten."!>(! f>!>)!e !fermata!a4 |] %15
w: Acht, sie nar- ret dich.|
w: |
w: |
w: |
V:2
 x cc^B cBcc | e4- e2 x2 | ^e6 e2 | c4- c2 x c | c3 c B3 B | B3 B A2 | A>A | A2 z2 z!p! .A.A.A | %8
w: ||||||1\-4.~hü- te|dich, nimm dich in|
 Afed c2 x A | GAB^B cBcc | cccc cc c2 | d3 d d2 x2 | x ced c2 x A | A2 x2 G2 x2 | Ad d>d c4 |] %15
w: Acht, * * * * *|||||||
V:3
 z!p! .A,.A,.A, .A,.A,.A,.A, |!f!!>(! C4-!>)! C2!p! z2 |!p! B,6 B,2 |!>(! A,4-!>)! A,2 z!f! A, | %4
 ^A,3!>(! A,!>)! F,3 F, | !>!G,3 G, E,2 | z2 | z2!p! A,>A, C2 z2 | z!p! .A,.A,.A, A,2 z A, | %9
 .E,.E,.E,.E,"^cresc." A,A,A,!mf!B, | !>!A,"^cresc."A,!>!^E,E,!>(! F,B,!>)! A,2 | %11
!f!!>(! B,3!>)! B, B,2!p! z2 | z!p! .A,.C.B, A,2 z!pp! F, | F,2 z2 B,2 z2 | %14
 A,!ff!G,!>(! G,>!>)!G, !fermata!E,4 |] %15
V:4
 z8 | z2!>(! E,>C, A,,2 C,>C, | C,2 C,>C, C,2!>)! C,>C, | F,2!f! C>A, F,2 x F, | F,3 F, B,,3 B,, | %5
w: |1.~hübsch und fein, 1\-4.~hü- te|dich, hü- te dich, hü- te|dich, hü- te dich! *||
 E,3 E, A,,2 | x2 | x2 F,>D, A,,2 x2 | z8 | z4 z2 z C, | F,2 C,2 F,C, F,2 | G,3 G, G,2 E,>E, | %12
w: ||||sie|nar- ret, nar- ret dich,|* * * hü- te|
 E,E,E,E, F,2 x F, | D,2 x2 E,2 x2 | A,E, E,>E, A,,4 |] %15
w: dich, * * * * *|||

